img/partners/img-9.svg

<svg width="209" height="68" viewBox="0 0 209 68" fill="none" xmlns="http://www.w3.org/2000/svg">
<g clip-path="url(#clip0_400_5223)">
<path d="M105.847 16.3672H111.458V21.4402H105.847V16.3672ZM105.847 24.3907H111.458V45.7222H105.847V24.3907Z" fill="#747679"/>
<path d="M119.998 27.8002H120.122C121.401 25.3882 122.845 24.1406 125.32 24.1406C125.939 24.1406 126.311 24.1825 126.641 24.3071V29.2553H126.517C122.845 28.8813 120.204 30.8356 120.204 35.3262V45.7218H114.593V24.3902H119.998V27.8002Z" fill="#747679"/>
<path d="M137.573 16.3672H143.184V21.4402H137.573V16.3672ZM137.573 24.3907H143.184V45.7222H137.573V24.3907Z" fill="#747679"/>
<path d="M151.806 27.3015H151.93C153.374 25.0145 155.312 23.8086 158.201 23.8086C162.575 23.8086 165.503 27.135 165.503 31.7923V45.7222H159.893V32.6238C159.893 30.3368 158.572 28.7151 156.22 28.7151C153.745 28.7151 151.93 30.711 151.93 33.6218V45.7222H146.319V24.3907H151.806V27.3015H151.806Z" fill="#747679"/>
<path d="M167.813 35.0356C167.813 28.7151 172.062 23.8086 178.251 23.8086C185.058 23.8086 188.689 29.0478 188.689 36.6571H173.341C173.754 39.9419 175.569 41.9797 178.746 41.9797C180.932 41.9797 182.211 40.9817 182.83 39.3598H188.359C187.575 43.1439 184.233 46.346 178.787 46.346C171.774 46.3458 167.813 41.3971 167.813 35.0356ZM173.424 32.7486H182.83C182.665 30.0455 180.891 28.1742 178.333 28.1742C175.363 28.1742 173.919 29.9624 173.424 32.7486Z" fill="#747679"/>
<path d="M189.981 38.8191H195.179C195.551 41.2726 197.283 42.3537 199.801 42.3537C202.276 42.3537 203.679 41.3971 203.679 39.9007C203.679 37.863 200.997 37.6549 198.109 37.0732C194.313 36.3246 190.6 35.285 190.6 30.6279C190.6 26.0125 194.396 23.8086 199.223 23.8086C204.793 23.8086 207.887 26.5946 208.299 30.8773H203.225C202.977 28.5905 201.533 27.7588 199.14 27.7588C196.954 27.7588 195.51 28.5905 195.51 30.1289C195.51 31.9584 198.315 32.1248 201.327 32.7489C204.875 33.4972 208.795 34.4952 208.795 39.485C208.795 43.768 205.164 46.3462 199.883 46.3462C193.735 46.3458 190.312 43.3521 189.981 38.8191Z" fill="#747679"/>
<path d="M92.6079 16.3672H86.0775L74.27 45.722H80.9536L83.1403 39.6927H95.1876L97.4152 45.722H104.14L92.6079 16.3672ZM84.7491 34.7443L89.0813 22.2695L93.5369 34.7441H84.7491V34.7443Z" fill="#747679"/>
<path d="M134.438 16.3672H128.827V45.722H134.438V16.3672Z" fill="#747679"/>
<path d="M66.9881 33.9861C66.9881 52.6357 52.0028 67.7365 33.5042 67.7365C15.0032 67.7365 0 52.6357 0 33.9861C0 15.3365 15.0032 0.221191 33.5042 0.221191C52.003 0.221191 66.9881 15.3365 66.9881 33.9861Z" fill="#BED600"/>
<path d="M31.0633 16.3657C25.7875 16.3657 22.3649 16.6596 19.8873 17.5866C15.7238 19.2212 12.8485 22.6472 12.8485 27.1495C12.8485 30.8994 14.581 33.6151 19.5947 36.7386C24.9443 40.0071 26.0115 41.0872 26.0115 43.0567C26.0115 45.2123 23.9161 47.6657 18.5244 47.6657C16.6426 47.6657 13.8082 47.4033 11.997 46.9567L11.1328 46.7371C10.6507 48.0397 9.55634 51.121 9.22266 52.239L10.0784 52.4927C11.7076 53.0164 15.574 53.4254 18.3441 53.4254C27.5594 53.4254 33.0576 47.8141 33.0576 41.9382C33.0576 38.3277 31.4315 35.5836 25.9345 32.1267C23.1771 30.4173 21.7719 29.3088 20.9186 28.4507C20.2269 27.5549 20.1503 26.8882 20.1503 26.1839C20.1503 25.5115 20.2987 24.7367 20.7385 24.1692C21.2142 23.4675 22.0867 23.0204 23.2676 22.6515C24.4813 22.2456 26.7301 22.2349 30.2326 22.2349H33.4938L35.8225 16.366L31.0633 16.3657ZM55.7093 16.3657H39.3213L36.9923 22.2344H42.4244C46.0795 22.2344 46.7826 22.1551 47.7004 22.1551C46.3754 25.2102 38.3894 45.7208 38.3894 45.7208H45.1482C45.1482 45.7208 55.2589 20.1887 56.3303 17.5118C56.6272 16.9145 56.4797 16.3657 55.7093 16.3657Z" fill="white"/>
</g>
<defs>
<clipPath id="clip0_400_5223">
<rect width="209" height="68" fill="white"/>
</clipPath>
</defs>
</svg>

<svg width="209" height="68" fill="none" xmlns="http://www.w3.org/2000/svg"><g clip-path="url(#clip0_400_5223)"><path d="M105.847 16.367h5.611v5.073h-5.611v-5.073zm0 8.024h5.611v21.331h-5.611V24.391zm14.151 3.409h.124c1.279-2.412 2.723-3.66 5.198-3.66.619 0 .991.043 1.321.167v4.948h-.124c-3.672-.374-6.313 1.58-6.313 6.071v10.396h-5.611V24.39h5.405v3.41zm17.575-11.433h5.611v5.073h-5.611v-5.073zm0 8.024h5.611v21.331h-5.611V24.391zm14.233 2.911h.124c1.444-2.287 3.382-3.493 6.271-3.493 4.374 0 7.302 3.326 7.302 7.983v13.93h-5.61V32.624c0-2.287-1.321-3.909-3.673-3.909-2.475 0-4.29 1.996-4.29 4.907v12.1h-5.611V24.391h5.487v2.91zm16.007 7.734c0-6.32 4.249-11.227 10.438-11.227 6.807 0 10.438 5.239 10.438 12.848h-15.348c.413 3.285 2.228 5.323 5.405 5.323 2.186 0 3.465-.998 4.084-2.62h5.529c-.784 3.784-4.126 6.986-9.572 6.986-7.013 0-10.974-4.949-10.974-11.31zm5.611-2.287h9.406c-.165-2.704-1.939-4.575-4.497-4.575-2.97 0-4.414 1.788-4.909 4.575zm16.557 6.071h5.198c.372 2.453 2.104 3.534 4.622 3.534 2.475 0 3.878-.957 3.878-2.453 0-2.038-2.682-2.246-5.57-2.828-3.796-.748-7.509-1.788-7.509-6.445 0-4.616 3.796-6.82 8.623-6.82 5.57 0 8.664 2.787 9.076 7.07h-5.074c-.248-2.288-1.692-3.12-4.085-3.12-2.186 0-3.63.832-3.63 2.37 0 1.83 2.805 1.997 5.817 2.62 3.548.75 7.468 1.747 7.468 6.737 0 4.283-3.631 6.861-8.912 6.861-6.148 0-9.571-2.994-9.902-7.527zM92.608 16.367h-6.53L74.27 45.722h6.684l2.186-6.03h12.048l2.227 6.03h6.725L92.608 16.367zm-7.859 18.377l4.332-12.474 4.456 12.474h-8.788zm49.689-18.377h-5.611v29.355h5.611V16.367z" fill="#747679"/><path d="M66.988 33.986c0 18.65-14.985 33.75-33.484 33.75-18.5 0-33.504-15.1-33.504-33.75S15.003.221 33.504.221c18.499 0 33.484 15.115 33.484 33.765z" fill="#BED600"/><path d="M31.063 16.366c-5.275 0-8.698.294-11.176 1.22-4.163 1.635-7.039 5.061-7.039 9.564 0 3.75 1.733 6.465 6.747 9.589 5.35 3.268 6.417 4.348 6.417 6.318 0 2.155-2.096 4.609-7.488 4.609-1.881 0-4.716-.263-6.527-.71l-.864-.219c-.482 1.303-1.577 4.384-1.91 5.502l.855.254c1.63.523 5.496.932 8.266.932 9.215 0 14.714-5.61 14.714-11.487 0-3.61-1.627-6.354-7.123-9.811-2.758-1.71-4.163-2.818-5.016-3.676-.692-.896-.769-1.563-.769-2.267 0-.672.149-1.447.588-2.015.476-.701 1.349-1.149 2.53-1.518 1.213-.405 3.462-.416 6.965-.416h3.26l2.33-5.869h-4.76zm24.646 0H39.321l-2.329 5.868h5.432c3.656 0 4.359-.079 5.276-.079-1.325 3.055-9.31 23.566-9.31 23.566h6.758s10.11-25.532 11.182-28.21c.297-.596.15-1.145-.62-1.145z" fill="#fff"/></g><defs><clipPath id="clip0_400_5223"><path fill="#fff" d="M0 0h209v68H0z"/></clipPath></defs></svg>
